X: 30277
T: Old Lurgan Town
R: jig
M: 6/8
K: Dmajor
DEF AFA|d/d/Bd edB|DEF AFA|fed A2F|
DEF AFA|d/d/Bd e2f|afa ecA|dBF D2F|
DEF AFA|d/d/Bd fdB|EFA AFA|afd A2F|
DEF AFA|d/d/Bd e2f|afa ecA|dBF D2f||
afa ecA|fec ecA|afa ecA|afa e2f|
afa ecA|fec ecA|EFA BcA|BAF Ace|
a/a/fa ecA|fec ecA|a/a/fa ecA|afa e2f|
a/a/fa ecA|fec ecA|EFA cBA|cBA A2E||

